X:1
T:Step by Step
T:Step by Step
T:Josiah Carley
T:Josiah Carley, 2012
T:© 2012 Josiah Carley. This hymn may be freely reproduced for Christian worship or devotions provided it is not altered, &amp; this notice is on each copy. All other rights reserved.
T:© 2012 Josiah Carley. This hymn may be freely reproduced for Christian worship or devotions provided it is not altered, &amp; this notice is on each copy. All other rights reserved.
C:Josiah Carley
Z:© 2012 Josiah Carley. This hymn may be freely reproduced for Christian worship or devotions
Z:provided it is not altered, & this notice is on each copy. All other rights reserved.
%%score ( 1 2 ) 3
L:1/8
Q:1/4=100
M:4/4
K:Eb
V:1 treble 
V:2 treble 
V:3 bass 
V:1
 [EG]"^Orig. key F Major"[DF] | [B,E]3 [B,E] [B,E][EG][DF][CE] | [A,C]2 [CE]4 [B,D][A,C] | %3
w: 1.~Step by|step, our Fa- ther leads us|up- ward, E- ver|
w: 2.~Step by|step, our cha- rac- ters are|mold- ed By our|
w: 3.~Step by|step, He leads through sun- ny|wea- ther, In His|
w: 4.~Step by|step, with each one draw- ing|near- er To our|
 B,3 B,B,[B,C][B,E][EG] | [DF]6 [EG][FA] | [GB]3 [GB] [GB][GB][FA][EG] | [CE]2 [CA]4 [DB][CA] | %7
w: high- er, to our home a-|bove; Step by|step, for- e- ver go- ing|on- ward, In His|
w: Sav- ior’s lov- ing, ten- der|hands, Step by|step, as ev- ’ry day un-|fold- ed, Brings us|
w: arms, the storms we have with-|stood; And we|know that all things work to-|ge- ther, By His|
w: e- ver- last- ing home on|high; Step by|step, with each one He is|dear- er; For our|
 [B,G]3 [B,G] [B,F][B,E][B,D][B,F] | [B,E]6 [B,E]2 | [EA]>[EA] [EA][EA] [EA][EA] [EB][Ec] | %10
w: hand, and trust- ing in His|love. Though|oft our hearts may ache with si- lent|
w: near- er right to where He|stands. For|through our deep- est tri- als He is|
w: care, for all our high- est|good. For|though we may not un- der- stand His|
w: sins, for us, He bled and|died. Not|long will pass be- fore our jour- ney’s|
 [EB] [EG]6 [EG] | [FA]3 [EG] [DA][DG][DA][Dc] | [EB]6 [B,E]2 | %13
w: long- ing Which|on- ly He our Lord may|know, One|
w: faith- ful; His|love our emp- ti- ness will|fill. And|
w: work- ings, Or|grasp the wis- dom of His|plans, One|
w: end- ed, And|this old life will be no|more; For|
 [Ec]>[Ec] [Ec][Ec] [Ec][Ec] [Fd][Ge] | [EB] [EG]6 [EG] | [CF]3 [CF] [DF][CE][B,D][B,F] | [B,E]6 |] %17
w: day we’ll un- der- stand the joy and|bless- ing Which|came from serv- ing Him be-|low.|
w: thus our Lord will make us to be|joy- ful, Through|faith and trust with- in Him|still.|
w: day we’ll see the beau- ty of His|do- ings, And|know the love of His com-|mands.|
w: He who by all Hea- ven is at-|tend- ed, Shall|lead us all to Ca- naan’s|shore.|
V:2
 x2 | x8 | x8 | B,3 B, B, x3 | x8 | x8 | x8 | x8 | x8 | x8 | x8 | x8 | x8 | x8 | x8 | x8 | x6 |] %17
V:3
 [E,B,][E,A,] | [E,G,]3 [E,G,] [E,G,][E,G,][E,G,][E,G,] | [E,A,]2 [E,A,]4 [E,A,][E,A,] | %3
 [E,G,]3 [E,G,] [E,G,][E,G,][E,G,][E,G,] | [B,,B,]6 [B,,B,][B,,B,] | %5
 [E,B,]3 [E,B,] [E,B,][E,B,][E,B,][E,B,] | [E,A,]2 [E,A,]4 [E,B,][E,A,] | %7
 [E,G,]3 [E,G,] [B,,A,][B,,A,][B,,A,][B,,A,] | [E,G,]6 [E,G,]2 | %9
 [A,,C]>[A,,C] [A,,C][A,,C] [A,,C][A,,C] [A,,C][A,,C] | [E,G,] [E,B,]6 [E,B,] | %11
 [F,C]3 [F,C] [B,,B,][B,,B,][B,,B,][B,,B,] | [E,G,]6 [E,G,]2 | %13
 [A,,A,]>[A,,A,] [A,,A,][A,,A,] [A,,A,][A,,A,] [A,,A,][A,,A,] | [E,G,] [E,B,]6 [E,B,] | %15
 [F,A,]3 [F,A,] [B,,A,][B,,A,][B,,A,][B,,A,] | [E,G,]6 |] %17

